X:1
T: Dear Duris
C:Bruce Shawyer
R:Strathspey
Q:128
K:G
M:4/4
L:1/16
|:D4|B4 B2A2 G4 G2F2|G8 E4 E4|c4 c2B2 A4 A2G2|B8 A4 D4|
B4 B2A2 G4 G2F2|G8 E4 G2E2|D4 D2E2 D4 E4|G12 D4|
G4 G2A2 B4 d4|g4 g2f2 e4 d4|e4 e2d2 c4 c2B2|B8 A4 D4|
B4 B2A2 G4 G2F2|G8 E4 G2E2|D4 D2E2 D4 E4|G12:|
